X: 7
T: SCOTTISH ADELE
M: 4/4
L: 1/8
Q:1/4=75
K:C
|eedc B/2d/2c/2B/2A2|A/2B/2c/2d/2ed/2e/2 g^fB2|eedc B/2d/2c/2B/2A2|A/2B/
2c/2d/2ed/2c/2 B/2c/2d/2e/2A2|
ec/2e/2=f/2c/2e/2f/2 ec/2e/2f/2c/2e/2f/2|B3/2d/2e/2c/2d/2 e<Bd/2e/2c/2d/
2e/2|ec/2e/2f/2c/2e/2f/2 ec/2e/2f/2c/2e/2f/2|B/2f/2e/2d/2cB A/2B/2c/2B/2
A2|
